X: 14428
T: Galway Rambler, The
R: reel
M: 4/4
K: Amajor
Ac ec fcec|ABcA BAFG|Ac ec fcef|afec BAFG|
Ac ec fcec|ABcA BAFG|AGAB cBce|afec B2 ce||
a3c' babc'|abc'a bafg|a3c' babc'|afec B2 ce|
a3c' babc'|abc'a bafa|c'aba faef|afec BAFG||

